images_sukapura_svg/cmd/sc_forward.svg

<svg viewBox="0 0 16 16" xmlns="http://www.w3.org/2000/svg" xmlns:xlink="http://www.w3.org/1999/xlink"><linearGradient id="a" gradientUnits="userSpaceOnUse" x1="-8" x2="-8" y1="43" y2="35"><stop offset="0" stop-color="#f5f5f5"/><stop offset="1" stop-color="#fff"/></linearGradient>


     /&amp;amp;gt;
 <path d="m.5 6c-.277 0-.5.223-.5.5v9c0 .277.223.5.5.5h10c.277 0 .5-.223.5-.5v-9c0-.277-.223-.5-.5-.5zm.5 1h9v8h-9z" fill="#98989d"/><path d="m1 7h9v8h-9z" fill="url(#a)"/><path d="m5.5 0c-.276131.0000276-.499972.2238691-.5.5v4.5 4.5c.000028.276131.223869.499972.5.5h6.5 3.5c.276131-.000028.499972-.223869.5-.5v-4.5-4.5c-.000028-.27613094-.223869-.49997239-.5-.5h-6.5zm.5 1h9v8h-9z" fill="#e4b500"/><path d="m6 1h9v8h-9z" fill="#fc0"/></svg>

<?xml version="1.0" encoding="UTF-8" standalone="no"?>
<svg
   xmlns:dc="http://purl.org/dc/elements/1.1/"
   xmlns:cc="http://creativecommons.org/ns#"
   xmlns:rdf="http://www.w3.org/1999/02/22-rdf-syntax-ns#"
   xmlns:svg="http://www.w3.org/2000/svg"
   xmlns="http://www.w3.org/2000/svg"
   xmlns:xlink="http://www.w3.org/1999/xlink"
   xmlns:sodipodi="http://sodipodi.sourceforge.net/DTD/sodipodi-0.dtd"
   xmlns:inkscape="http://www.inkscape.org/namespaces/inkscape"
   viewBox="0 0 16 16"
   version="1.1"
   id="svg6"
   sodipodi:docname="sc_forward.svg"
   inkscape:version="0.92.3 (unknown)"
   inkscape:export-filename="/home/rizmut/Dokumen/Rizmut/Github/libreoffice-style-sukapura/images_sukapura/cmd/sc_forward.png"
   inkscape:export-xdpi="96"
   inkscape:export-ydpi="96"><metadata
   id="metadata12">
  <rdf:RDF>
    <cc:Work
       rdf:about="">
      <dc:format>image/svg+xml</dc:format>
      <dc:type
         rdf:resource="http://purl.org/dc/dcmitype/StillImage" />
      <dc:title></dc:title>
    </cc:Work>
  </rdf:RDF>
</metadata>
<defs
   id="defs10">
  <linearGradient
     gradientTransform="translate(-12,28)"
     y2="2"
     y1="16"
     x2="10"
     x1="10"
     gradientUnits="userSpaceOnUse"
     id="linearGradient1639">
    <stop
       id="stop1633"
       stop-color="#f5f5f5"
       offset="0" />
    <stop
       id="stop1637"
       stop-color="#fff"
       offset="1" />
  </linearGradient>
  <linearGradient
     inkscape:collect="always"
     xlink:href="#linearGradient1639"
     id="linearGradient867"
     x1="4"
     y1="15"
     x2="4"
     y2="7"
     gradientUnits="userSpaceOnUse" />
</defs>
<sodipodi:namedview
   pagecolor="#ffffff"
   bordercolor="#666666"
   borderopacity="1"
   objecttolerance="10"
   gridtolerance="10"
   guidetolerance="10"
   inkscape:pageopacity="0"
   inkscape:pageshadow="2"
   inkscape:window-width="1366"
   inkscape:window-height="706"
   id="namedview8"
   showgrid="true"
   inkscape:zoom="14.75"
   inkscape:cx="11.942438"
   inkscape:cy="8.0246967"
   inkscape:window-x="0"
   inkscape:window-y="0"
   inkscape:window-maximized="1"
   inkscape:current-layer="g892">
  <inkscape:grid
     type="xygrid"
     id="grid846"
     spacingx="0.5"
     spacingy="0.5"
     empspacing="2" />
</sodipodi:namedview>


     /&amp;gt;
 <g
   id="g892">
  <g
     id="g900">
    <path
       style="fill:#98989d;fill-opacity:1;stroke:none;stroke-opacity:1"
       d="M 0.5 6 C 0.223 6 0 6.223 0 6.5 L 0 15.5 C 0 15.777 0.223 16 0.5 16 L 10.5 16 C 10.777 16 11 15.777 11 15.5 L 11 6.5 C 11 6.223 10.777 6 10.5 6 L 0.5 6 z M 1 7 L 10 7 L 10 15 L 1 15 L 1 7 z "
       id="rect851" />
    <path
       d="m 1,7 h 9 v 8 H 1 Z"
       stroke-miterlimit="0"
       id="path4"
       style="fill:url(#linearGradient867);stroke:none;stroke-linejoin:round;stroke-miterlimit:0;stroke-opacity:1;fill-opacity:1"
       inkscape:connector-curvature="0"
       sodipodi:nodetypes="ccccc" />
  </g>
  <g
     id="g896">
    <path
       style="fill:#e4b500;fill-opacity:1"
       d="M 5.5 0 C 5.223869 2.76e-05 5.000028 0.2238691 5 0.5 L 5 5 L 5 9.5 C 5.000028 9.776131 5.223869 9.999972 5.5 10 L 12 10 L 15.5 10 C 15.776131 9.999972 15.999972 9.776131 16 9.5 L 16 5 L 16 0.5 C 15.999972 0.22386906 15.776131 2.761e-05 15.5 0 L 9 0 L 5.5 0 z M 6 1 L 15 1 L 15 9 L 6 9 L 6 1 z "
       id="path2" />
    <rect
       style="fill:#ffcc00;fill-opacity:1;stroke:none;stroke-opacity:1"
       id="rect856"
       width="9"
       height="8"
       x="6"
       y="1"
       rx="0"
       ry="0" />
  </g>
</g>
</svg>
